landscape/logos/preset-data-exploration.svg

<svg xmlns="http://www.w3.org/2000/svg" role="img" viewBox="-1.85 -1.48 96.46 31.71"><title>Preset (Data Exploration) logo</title><g fill="none" fill-rule="evenodd"><g><g><g><path fill="#000" d="M35.9789741,12.3543222 L35.9789741,18.2558222 C35.9789741,19.8894889 36.9626897,20.9455722 38.4851638,20.9455722 C40.0068362,20.9455722 40.9905517,19.8894889 40.9905517,18.2558222 L40.9905517,12.3543222 C40.9905517,10.7214611 40.0068362,9.66537778 38.4851638,9.66537778 C36.9626897,9.66537778 35.9789741,10.7214611 35.9789741,12.3543222 Z M38.4795517,7.62571111 C41.1893793,7.62571111 43.0774397,9.57032222 43.0726385,12.3543222 L43.0726385,18.2558222 C43.0726385,20.9528222 41.207819,22.9860444 38.7361034,22.9860444 C37.7098966,23.0190722 36.7141552,22.6348222 35.9733621,21.9202944 L35.9733621,27.9087944 L35.9733621,27.9426278 C35.9637414,28.2197389 35.7328448,28.4364333 35.4578534,28.4267667 L34.4019828,28.4267667 C34.3915603,28.4273708 34.3795345,28.4273708 34.3675086,28.4267667 C34.0917155,28.4171 33.8768534,28.1851 33.8864741,27.9087944 L33.8864741,12.3543222 C33.8864741,9.57032222 35.7745345,7.62571111 38.4795517,7.62571111 Z M51.0833767,7.82621389 C51.0994112,7.82540833 51.114644,7.82540833 51.1298767,7.82540833 C51.4048681,7.835075 51.6213336,8.06788056 51.6109112,8.34499167 L51.6109112,9.34629722 C51.6117129,9.357575 51.6117129,9.36965833 51.6109112,9.38093611 C51.6012905,9.65885278 51.3695922,9.87635278 51.0929974,9.86668611 L49.8391009,9.86668611 C48.214006,9.86668611 47.2118509,10.8639639 47.2118509,12.4694361 L47.2118509,22.1804083 C47.2118509,22.1916861 47.2118509,22.2021583 47.2110491,22.2126306 C47.2014284,22.4913528 46.9697302,22.7088528 46.6931353,22.6991861 L45.6380664,22.6991861 C45.6268422,22.6991861 45.6156181,22.6991861 45.604394,22.6991861 C45.3286009,22.6895194 45.1129371,22.4575194 45.121756,22.1804083 L45.121756,12.4694361 C45.121756,9.778075 47.1020147,7.82621389 49.8302819,7.82621389 L51.0833767,7.82621389 Z M54.5940466,12.4129667 L54.5940466,14.67255 L57.0994345,14.67255 C58.6195034,14.67255 59.603219,13.7389111 59.603219,12.2977722 C59.603219,10.7156611 58.6195034,9.69502222 57.0994345,9.69502222 C55.5320638,9.69502222 54.5940466,10.7156611 54.5940466,12.4129667 Z M57.0994345,16.7130222 L54.5940466,16.7186611 L54.5940466,18.2274667 C54.5940466,19.8611333 55.5777621,20.9172167 57.0994345,20.9172167 C58.5505552,20.9172167 59.5222448,19.8587167 59.5751586,18.2194111 C59.5743569,18.1992722 59.5743569,18.1783278 59.5759603,18.1573833 C59.5944,17.8907444 59.8252966,17.6893556 60.091469,17.7086889 L61.1465379,17.7086889 C61.1585638,17.7086889 61.1705897,17.7086889 61.1834172,17.7086889 C61.4592103,17.7183556 61.6740724,17.9511611 61.6644517,18.2274667 C61.5746586,21.0598 59.7387103,22.9576889 57.0994345,22.9576889 C54.3511241,22.9576889 52.5063569,21.0565778 52.5063569,18.2274667 L52.5063569,12.4129667 C52.5063569,9.56532778 54.3511241,7.65293889 57.0994345,7.65293889 C59.8028483,7.65293889 61.6925121,9.56291111 61.6925121,12.2977722 C61.6925121,14.8554111 59.7587534,16.7130222 57.0994345,16.7130222 Z M68.2640043,14.2706583 C70.2009698,15.0931306 72.4105216,16.0267694 72.4105216,18.8872972 C72.4105216,21.2242139 70.5096336,22.987575 67.9882112,22.987575 C65.1541164,22.987575 63.3181681,21.1847417 63.196306,18.2726583 L63.196306,18.2637972 L63.196306,18.2291583 C63.205125,17.9520472 63.4368233,17.7353528 63.7118147,17.7442139 L64.7676853,17.7442139 C64.7893319,17.7434083 64.8109784,17.7434083 64.8334267,17.7442139 C65.1004009,17.7627417 65.3016336,17.9955472 65.283194,18.2637972 C65.3601595,20.0698528 66.2460647,20.9527417 67.9882112,20.9527417 C69.4714009,20.9527417 70.3228319,20.2019639 70.3228319,18.8929361 C70.3228319,17.4542139 68.9647112,16.8734083 67.3909267,16.201575 C65.4916422,15.3911861 63.3366078,14.4704361 63.3366078,11.7323528 C63.3366078,9.39543611 65.2030216,7.63368611 67.6747371,7.63368611 C70.4318664,7.63368611 72.0842198,9.24801944 72.2100905,12.0658528 L72.2100905,12.090825 C72.2052802,12.3679361 71.979194,12.5886583 71.7025991,12.5846306 L70.6403147,12.5846306 C70.6194698,12.5862417 70.5978233,12.5862417 70.5769784,12.5846306 C70.3084009,12.5677139 70.1055647,12.3349083 70.1224009,12.0658528 C70.0382198,10.5457694 69.157125,9.66529722 67.7613233,9.66529722 C66.3647198,9.66529722 65.4259009,10.4934083 65.4259009,11.7242972 C65.4259009,13.0687694 66.7423319,13.6254083 68.2640043,14.2706583 Z M76.0573241,12.4129667 L76.0573241,14.67255 L78.5635138,14.67255 C80.0851862,14.67255 81.0697034,13.7389111 81.0697034,12.2977722 C81.0697034,10.7156611 80.0851862,9.69502222 78.5635138,9.69502222 C76.9961431,9.69502222 76.0573241,10.7156611 76.0573241,12.4129667 Z M78.5635138,16.7130222 L76.0573241,16.7186611 L76.0573241,18.2274667 C76.0573241,19.8611333 77.0418414,20.9172167 78.5635138,20.9172167 C80.0146345,20.9172167 80.9863241,19.8587167 81.0416431,18.2194111 C81.0400397,18.1992722 81.0400397,18.1783278 81.0416431,18.1573833 C81.0608845,17.8907444 81.291781,17.6893556 81.5571517,17.7086889 L82.6122207,17.7086889 C82.6234448,17.7086889 82.6354707,17.7086889 82.6466948,17.7086889 C82.9224879,17.7183556 83.1381517,17.9511611 83.128531,18.2274667 C83.0387379,21.0598 81.2043931,22.9576889 78.5635138,22.9576889 C75.8152034,22.9576889 73.9696345,21.0565778 73.9696345,18.2274667 L73.9696345,12.4129667 C73.9696345,9.56532778 75.8152034,7.65293889 78.5635138,7.65293889 C81.2757466,7.65293889 83.1533845,9.56291111 83.1565914,12.2977722 C83.1565914,14.8554111 81.2252379,16.7130222 78.5635138,16.7130222 Z M89.7485276,20.75095 C89.7725793,20.7493389 89.7974328,20.7493389 89.8214845,20.75095 C90.0876569,20.7686722 90.2896914,21.0014778 90.27045,21.2697278 L90.27045,22.27345 C90.2712517,22.2855333 90.2712517,22.2984222 90.27045,22.3113111 C90.2600276,22.5876167 90.029131,22.8018944 89.7549414,22.7914222 L89.3789328,22.7914222 C86.7156052,22.7914222 85.1273897,20.9056167 85.1273897,17.7470333 L85.1273897,4.45536667 C85.1265879,4.44489444 85.1265879,4.43442222 85.1273897,4.42314444 C85.1362086,4.14522778 85.3671052,3.92692222 85.6437,3.93497778 L86.698769,3.93497778 C86.7091914,3.93497778 86.7204155,3.93497778 86.7308379,3.93497778 C87.0074328,3.94464444 87.2247,4.17825556 87.2150793,4.45536667 L87.2150793,7.94664444 L89.401381,7.94664444 C89.4134069,7.94664444 89.424631,7.94664444 89.4358552,7.94664444 C89.7116483,7.95631111 89.9273121,8.18831111 89.9176914,8.46542222 L89.9176914,9.43853333 C89.9184931,9.44981111 89.9184931,9.46028333 89.9176914,9.47156111 C89.9088724,9.74947778 89.6779759,9.96778333 89.401381,9.95972778 L87.2094672,9.95972778 L87.2094672,17.7470333 C87.2094672,19.7399778 87.9374328,20.75095 89.3733207,20.75095 L89.7485276,20.75095 Z M90.8485733,5.46464722 L90.4902026,5.46464722 L90.4902026,5.24795278 L91.462694,5.24795278 L91.462694,5.46464722 L91.1035216,5.46464722 L91.1035216,6.43936944 L90.8485733,6.43936944 L90.8485733,5.46464722 Z M92.6148517,5.98737222 L92.6148517,5.42106667 C92.558731,5.66273333 92.4400759,6.05665 92.3286362,6.42881667 L92.1097655,6.42881667 C92.023981,6.10417778 91.9013172,5.65548333 91.8516103,5.41784444 C91.8628345,5.55720556 91.8660414,5.79484444 91.8660414,6.00428889 L91.8660414,6.42881667 L91.6327397,6.42881667 L91.6327397,5.24787222 L92.0087483,5.24787222 C92.1001448,5.55720556 92.1971534,5.94548333 92.2396448,6.12109444 C92.2677052,5.96642778 92.3975845,5.55559444 92.4969983,5.24787222 L92.8722052,5.24787222 L92.8722052,6.43203889 L92.6268776,6.43203889 L92.6148517,5.98737222 Z"/><path fill="#2FC096" d="M17.081294,0.372488889 L11.5020957,0.372488889 L9.29334569,5.15748889 L17.081294,5.15748889 C21.132406,5.15748889 24.4162681,8.45704444 24.4162681,12.5275167 C24.4162681,16.5987944 21.132406,19.89835 17.081294,19.89835 L14.0403543,19.89835 L11.8251905,24.6720722 C11.9005526,24.6793222 11.9767164,24.68335 12.0528802,24.68335 L17.081294,24.68335 C23.7620612,24.6817389 29.1777078,19.2386 29.1761047,12.5259056 C29.1753026,5.81401667 23.7604578,0.373294444 17.081294,0.372488889 M17.081294,10.1366278 L8.09156121,10.1366278 L-0.000240517241,27.7194889 L5.21978534,27.7194889 L11.1308974,14.9216278 L17.081294,14.9216278 C18.3961216,14.8845722 19.4327509,13.7825722 19.3950698,12.4614611 C19.359794,11.1927111 18.3440095,10.1720722 17.081294,10.1366278"/></g></g></g></g></svg>

<svg xmlns="http://www.w3.org/2000/svg" role="img" viewBox="-1.85 -1.48 96.46 31.71"><title>Preset (Data Exploration) logo</title><g fill="none" fill-rule="evenodd"><path fill="#000" d="M35.97897 12.35432v5.9015c0 1.63367.98372 2.68975 2.5062 2.68975 1.52167 0 2.50538-1.05608 2.50538-2.68975v-5.9015c0-1.63286-.98371-2.68894-2.50539-2.68894-1.52247 0-2.50619 1.05608-2.50619 2.68894zm2.50058-4.7286c2.70983 0 4.59789 1.9446 4.59309 4.7286v5.9015c0 2.697-1.86482 4.73022-4.33654 4.73022-1.0262.03303-2.02194-.35122-2.76274-1.06575v6.02234c-.00962.2771-.24052.4938-.5155.48414h-1.05588a.32772.32772 0 01-.03447 0c-.2758-.00967-.49066-.24167-.48104-.51798V12.35432c0-2.784 1.88806-4.7286 4.59308-4.7286zm12.60383.2005c.01603-.00081.03126-.00081.0465-.00081.27499.00967.49145.24247.48103.51958v1.0013a.24974.24974 0 010 .03465c-.00962.27791-.24132.49541-.51791.48575h-1.2539c-1.6251 0-2.62725.99727-2.62725 2.60275v9.71097c0 .01128 0 .02175-.0008.03222-.00962.27872-.24132.49622-.51791.48656H45.60439c-.27579-.00967-.49145-.24167-.48263-.51878v-9.71097c0-2.69137 1.98025-4.64323 4.70852-4.64323h1.2531zm3.51067 4.58675v2.25958h2.50538c1.52007 0 2.50379-.93364 2.50379-2.37478 0-1.5821-.98372-2.60275-2.50379-2.60275-1.56737 0-2.50538 1.02064-2.50538 2.71795zm2.50538 4.30005l-2.50538.00564v1.5088c0 1.63367.98371 2.68976 2.50538 2.68976 1.45113 0 2.42281-1.0585 2.47573-2.6978-.0008-.02015-.0008-.0411.0008-.06204.01844-.26664.24934-.46802.5155-.4487h1.09196c.27579.00968.49065.24248.48103.51879-.0898 2.83233-1.92574 4.73022-4.56502 4.73022-2.7483 0-4.59307-1.90111-4.59307-4.73022v-5.8145c0-2.84764 1.84476-4.76003 4.59307-4.76003 2.70342 0 4.59308 1.90997 4.59308 4.64483 0 2.55764-1.93376 4.41525-4.59308 4.41525zM68.264 14.27066c1.93697.82247 4.14652 1.7561 4.14652 4.61664 0 2.33691-1.90089 4.10027-4.4223 4.10027-2.8341 0-4.67005-1.80283-4.79191-4.71491v-.0435c.00882-.27711.24051-.4938.5155-.48495h1.05588a.89437.89437 0 01.06574 0c.26697.01853.4682.25134.44976.51959.07697 1.80605.96287 2.68894 2.70502 2.68894 1.4832 0 2.33462-.75078 2.33462-2.0598 0-1.43873-1.35812-2.01953-2.9319-2.69137-1.89929-.81038-4.05432-1.73113-4.05432-4.46922 0-2.33691 1.86641-4.09866 4.33813-4.09866 2.75713 0 4.40948 1.61433 4.53535 4.43216v.02498c-.00481.2771-.2309.49783-.5075.4938h-1.06228a.41559.41559 0 01-.06333 0c-.26858-.01692-.47142-.24972-.45458-.51878-.08418-1.52008-.96528-2.40055-2.36108-2.40055-1.3966 0-2.33542.8281-2.33542 2.059 0 1.34447 1.31643 1.9011 2.8381 2.54636zm7.79332-1.8577v2.25959h2.5062c1.52167 0 2.50618-.93364 2.50618-2.37478 0-1.5821-.98451-2.60275-2.50619-2.60275-1.56737 0-2.50619 1.02064-2.50619 2.71795zm2.5062 4.30006l-2.5062.00564v1.5088c0 1.63367.98452 2.68976 2.5062 2.68976 1.45111 0 2.4228-1.0585 2.47812-2.6978a.40049.40049 0 010-.06204c.01924-.26664.25014-.46802.51551-.4487h1.08954c.2758.00968.49146.24248.48184.51879-.0898 2.83233-1.92414 4.73022-4.56502 4.73022-2.7483 0-4.59388-1.90111-4.59388-4.73022v-5.8145c0-2.84764 1.84557-4.76003 4.59388-4.76003 2.71224 0 4.58987 1.90997 4.59308 4.64483 0 2.55764-1.93135 4.41525-4.59308 4.41525zm11.185 4.03793a.55123.55123 0 01.07296 0c.26618.01772.46821.25053.44897.51878v1.00372a.29823.29823 0 010 .03786c-.01042.2763-.24132.49058-.5155.48011h-.37602c-2.66332 0-4.25154-1.8858-4.25154-5.04439V4.45537a.21605.21605 0 010-.03223c.00882-.27791.23972-.49622.51631-.48816h1.08714c.2766.00966.49386.24328.48424.52039v3.49127h2.22078c.27579.00967.49145.24167.48183.51878v.97311a.22708.22708 0 010 .03303c-.00882.27792-.23971.49622-.5163.48817h-2.19192v7.7873c0 1.99295.72796 3.00392 2.16385 3.00392h.3752zm1.10005-15.2863h-.35837v-.2167h.9725v.2167h-.35918v.97472h-.25495v-.97472zm1.76628.52272v-.5663c-.05612.24166-.17477.63558-.28621 1.00775h-.21887c-.08579-.32464-.20845-.77334-.25816-1.01098.01122.13937.01443.377.01443.58645v.42453h-.2333V5.24787h.376c.0914.30934.18841.69761.2309.87322.02807-.15466.15794-.5655.25736-.87322h.3752v1.18417h-.24532l-.01203-.44467z"/><path fill="#2FC096" d="M17.0813.37249h-5.5792l-2.20875 4.785h7.78794c4.05112 0 7.33498 3.29955 7.33498 7.37003 0 4.07127-3.28386 7.37083-7.33498 7.37083h-3.04094l-2.21516 4.77372c.07536.00725.15153.01128.22769.01128h5.02841c6.68077-.00161 12.09642-5.44475 12.09481-12.15744C29.1753 5.814 23.76046.37329 17.0813.37249m0 9.76414H8.09155l-8.0918 17.58286h5.22003l5.9111-12.79786h5.9504c1.31483-.03706 2.35146-1.13906 2.31378-2.46017-.03528-1.26875-1.05106-2.28939-2.31378-2.32483"/></g></svg>
